X: 29
T: Drowsy Maggie
Z: Katherine Duff
S: https://thesession.org/tunes/27#setting46363
R: reel
M: 4/4
L: 1/8
K: Edor
|:"Em"E2 (BE) dEBE|E2 (BE) "D"AFDF|"Em"E2 (BE) dEBE|1 "G"B(ABc) "D"d(BAF):|2 "G"B(ABc) "D"d(AFA):|
"D"d2(fd) "A"c2(ec)|"D"def(g af)ge|"D"d2(fd)"A"c2(ec)|"G"B(ABc) "D"d(AFA)|
"D"d2(fd) "A"c2(ec)|"D"def(g af)"Em"ge|"D"a(AgA) "D"f(AeA)|"G"B(ABc) "D"d(AFD)||

